X:92
T: Der schwatzhafte Junggeselle
N: Q0139G
O: Osteuropa, UdSSR, Nord - Ukraine, Sprachinsel Belowjetsch
N: Schlusspause und einen Taktstrich weggelassen.
R: Ballade, Indiskretion, verweigerter Beischlaf
M: 4/4
L: 1/8
K: F
C | F2EDC2A2 | G2F2z3
C | F2EDC2A2 | G2F2z3
F | AAAAA2GA | B2AAG2z
G | GGGGG2FG | AAGGA3

@@@ Tune index: 1590
